X: 38932
T: Surround, The
R: slip jig
M: 9/8
K: Dmajor
|:d2f e2d B2A|f2a a2f e2c|d2f e2d B3|ABc d2F E2D:|
|:f3 f2e f2a|g2f e2d e2g|f3 f2e f2a|ABc d2F E2D:|

